X: 3880
T: Black Rose Of Beara, The
R: jig
M: 6/8
K: Edorian
|:d>zA BAG|(3FGA F GFE|fed ecA|G2A GED|
Add cde|dzf gfe|fde dcA|G2A GED:|
|:f2d ecA|xfed gfe|dcA G2A|dAB (3Bcde|
def Bcd|=cGE =cEG|FD=c BGd|cAed2z:|

